icons/blood_cells.svg

<svg width="48" height="48" viewBox="0 0 48 48" fill="none" xmlns="http://www.w3.org/2000/svg">
<path d="M23.4857 16.0402C24.6298 15.441 25 14.7874 25 14.3333C25 13.9367 24.7261 13.3911 23.8644 12.8445L24.9356 11.1555C26.0729 11.8769 27 12.9571 27 14.3333C27 15.9043 25.8032 17.0841 24.4138 17.8119C22.9769 18.5645 21.0612 19 19 19C16.9388 19 15.0231 18.5645 13.5862 17.8119C12.1968 17.0841 11 15.9043 11 14.3333C11 12.9571 11.9271 11.8769 13.0644 11.1555L14.1356 12.8445C13.2739 13.3911 13 13.9367 13 14.3333C13 14.7874 13.3702 15.441 14.5143 16.0402C15.6109 16.6147 17.1952 17 19 17C20.8048 17 22.3891 16.6147 23.4857 16.0402Z" fill="black"/>
<path fill-rule="evenodd" clip-rule="evenodd" d="M22.9954 24.5429C28.2203 23.311 32 19.7281 32 15.5C32 10.2533 26.1797 6 19 6C11.8203 6 6 10.2533 6 15.5C6 18.4758 7.87236 21.1321 10.8032 22.874C6.3289 25.5356 4.29149 30.3908 6.25169 33.7859C8.23311 37.2179 13.5489 37.8583 18.1248 35.2164C22.5585 32.6566 24.6708 27.9545 22.9954 24.5429ZM27.0124 20.6027C28.989 19.1582 30 17.3301 30 15.5C30 13.6699 28.989 11.8418 27.0124 10.3973C25.0372 8.95388 22.2109 8 19 8C15.7891 8 12.9628 8.95388 10.9876 10.3973C9.01098 11.8418 8 13.6699 8 15.5C8 17.3301 9.01098 19.1582 10.9876 20.6027C12.9628 22.0461 15.7891 23 19 23C22.2109 23 25.0372 22.0461 27.0124 20.6027ZM11.9494 24.5204C12.3208 24.3059 12.6956 24.1183 13.0706 23.9566C14.156 24.3638 15.3299 24.6627 16.5658 24.8337L16.4238 26.0796C17.0694 26.1531 17.4038 26.4006 17.5481 26.6504C17.7116 26.9336 17.7492 27.4407 17.356 28.1628C16.9724 28.8672 16.2442 29.624 15.233 30.2078C14.2219 30.7916 13.2024 31.0439 12.4005 31.0239C11.5786 31.0033 11.1582 30.7172 10.9947 30.4339C10.8505 30.1841 10.8034 29.7708 11.0625 29.1749L9.22841 28.3774C8.80986 29.34 8.70018 30.4597 9.26267 31.4339C9.90639 32.5489 11.1442 32.9931 12.3507 33.0232C13.5772 33.0538 14.9563 32.677 16.233 31.9398C17.5098 31.2027 18.5257 30.1968 19.1125 29.1193C19.6896 28.0594 19.9238 26.7653 19.2801 25.6504C19.1358 25.4005 18.9612 25.1841 18.7636 24.9985C18.8422 24.9995 18.921 25 19 25C19.6393 25 20.2679 24.9663 20.8825 24.9011C20.9581 25.0037 21.0274 25.1096 21.0904 25.2188C21.6958 26.2674 21.7575 27.6735 21.0934 29.2282C20.429 30.7836 19.0742 32.3589 17.1248 33.4844C15.1753 34.6099 13.1337 34.9955 11.4545 34.7932C9.77608 34.591 8.58912 33.8345 7.98374 32.7859C7.37835 31.7374 7.31668 30.3312 7.98078 28.7765C8.64517 27.2211 9.99998 25.6459 11.9494 24.5204Z" fill="black"/>
<path d="M36.5965 34.369C36.5025 34.7197 36.1391 35.1302 35.3071 35.3755C34.4945 35.6151 33.3892 35.6356 32.2046 35.3181C31.02 35.0007 30.073 34.4304 29.4891 33.8165C28.8913 33.1881 28.7818 32.6509 28.8757 32.3003C28.9585 31.9913 29.2426 31.6426 29.8824 31.3906L29.1494 29.5297C28.1375 29.9283 27.2432 30.6656 26.9439 31.7826C26.6013 33.0609 27.1771 34.2879 28.04 35.195C28.9168 36.1167 30.2061 36.8532 31.687 37.25C33.1678 37.6468 34.6527 37.6536 35.8728 37.2938C37.0737 36.9397 38.1858 36.165 38.5283 34.8867C38.8276 33.7697 38.4217 32.684 37.7447 31.8329L36.1795 33.0779C36.6076 33.616 36.6793 34.06 36.5965 34.369Z" fill="black"/>
<path fill-rule="evenodd" clip-rule="evenodd" d="M42.245 36.4571C41.1737 40.4553 35.9836 42.5385 30.6526 41.1101C25.3216 39.6817 21.8685 35.2825 22.9398 31.2842C24.0112 27.286 29.2013 25.2028 34.5322 26.6312C39.8632 28.0596 43.3163 32.4588 42.245 36.4571ZM40.3132 35.9394C39.977 37.1941 38.9595 38.2969 37.3012 38.9625C35.6422 39.6284 33.4582 39.7913 31.1703 39.1782C28.8824 38.5652 27.0724 37.3322 25.9686 35.926C24.8652 34.5203 24.5355 33.0566 24.8717 31.8019C25.2079 30.5472 26.2253 29.4444 27.8837 28.7788C29.5427 28.1129 31.7267 27.95 34.0146 28.5631C36.3025 29.1761 38.1125 30.4091 39.2163 31.8154C40.3196 33.221 40.6494 34.6847 40.3132 35.9394Z" fill="black"/>
<path fill-rule="evenodd" clip-rule="evenodd" d="M35.8354 24.7644C38.2304 25.4061 40.562 24.4702 41.0433 22.6739C41.5246 20.8777 39.9733 18.9013 37.5783 18.2596C35.1833 17.6179 32.8517 18.5538 32.3704 20.35C31.8891 22.1463 33.4404 24.1226 35.8354 24.7644ZM38.412 22.7773C38.915 22.5754 39.0703 22.31 39.1115 22.1563C39.1527 22.0026 39.1509 21.6951 38.8162 21.2687C38.4811 20.8418 37.8806 20.4112 37.0607 20.1915C36.2408 19.9718 35.5054 20.0445 35.0017 20.2466C34.4987 20.4485 34.3434 20.7139 34.3022 20.8677C34.261 21.0214 34.2628 21.3289 34.5975 21.7552C34.9326 22.1822 35.5331 22.6128 36.353 22.8325C37.1729 23.0522 37.9083 22.9795 38.412 22.7773Z" fill="black"/>
</svg>

<svg
  xmlns="http://www.w3.org/2000/svg"
  width="24"
  height="24"
  viewBox="0 0 24 24"
  fill="none"
  stroke="currentColor"
  stroke-width="2"
  stroke-linecap="round"
  stroke-linejoin="round"
>
  <path d="M23.486 16.04C24.63 15.441 25 14.787 25 14.333c0-.396-.274-.942-1.136-1.489l1.072-1.688c1.137.72 2.064 1.801 2.064 3.177 0 1.571-1.197 2.751-2.586 3.479C22.977 18.564 21.06 19 19 19s-3.977-.436-5.414-1.188C12.196 17.084 11 15.904 11 14.333c0-1.376.927-2.456 2.064-3.177l1.072 1.688c-.862.547-1.136 1.093-1.136 1.49 0 .453.37 1.107 1.514 1.706 1.097.575 2.681.96 4.486.96s3.39-.385 4.486-.96" />
  <path
    fill-rule="evenodd"
    d="M22.995 24.543C28.22 23.31 32 19.728 32 15.5 32 10.253 26.18 6 19 6S6 10.253 6 15.5c0 2.976 1.872 5.632 4.803 7.374-4.474 2.662-6.512 7.517-4.551 10.912 1.981 3.432 7.297 4.072 11.873 1.43 4.433-2.56 6.546-7.262 4.87-10.673m4.017-3.94C28.99 19.158 30 17.33 30 15.5s-1.011-3.658-2.988-5.103C25.037 8.954 22.211 8 19 8c-3.21 0-6.037.954-8.012 2.397C9.01 11.842 8 13.67 8 15.5s1.011 3.658 2.988 5.103C12.963 22.046 15.789 23 19 23c3.21 0 6.037-.954 8.012-2.397M11.95 24.52q.559-.321 1.122-.563c1.085.407 2.259.706 3.495.877l-.142 1.246c.645.073.98.32 1.124.57.164.284.201.79-.192 1.513-.384.704-1.112 1.461-2.123 2.045s-2.03.836-2.833.816c-.821-.02-1.242-.307-1.405-.59-.144-.25-.192-.663.068-1.26l-1.835-.797c-.418.963-.528 2.083.035 3.057.643 1.115 1.881 1.56 3.088 1.59 1.226.03 2.605-.347 3.882-1.084s2.293-1.743 2.88-2.82c.577-1.06.81-2.355.167-3.47a2.8 2.8 0 0 0-.516-.651L19 25q.96 0 1.883-.099.112.155.207.318c.606 1.048.668 2.454.003 4.01-.664 1.555-2.019 3.13-3.968 4.255-1.95 1.126-3.991 1.511-5.67 1.31-1.679-.203-2.866-.96-3.471-2.008-.606-1.049-.667-2.455-.003-4.01s2.019-3.13 3.968-4.256"
    clip-rule="evenodd"
  />
  <path d="M36.597 34.369c-.095.35-.458.761-1.29 1.007-.812.24-1.918.26-3.102-.058-1.185-.317-2.132-.888-2.716-1.501-.598-.629-.707-1.166-.613-1.517.082-.309.367-.657 1.006-.91l-.733-1.86c-1.012.398-1.906 1.136-2.205 2.253-.343 1.278.233 2.505 1.096 3.412.877.922 2.166 1.658 3.647 2.055s2.966.404 4.186.044c1.2-.354 2.313-1.129 2.655-2.407.3-1.117-.106-2.203-.783-3.054l-1.565 1.245c.428.538.5.982.416 1.291" />
  <path
    fill-rule="evenodd"
    d="M42.245 36.457c-1.071 3.998-6.261 6.081-11.592 4.653s-8.784-5.828-7.713-9.826 6.261-6.081 11.592-4.653 8.784 5.828 7.713 9.826m-1.932-.518c-.336 1.255-1.354 2.358-3.012 3.023-1.659.666-3.843.83-6.13.216-2.289-.613-4.099-1.846-5.202-3.252-1.104-1.406-1.434-2.87-1.097-4.124.336-1.255 1.353-2.358 3.012-3.023 1.659-.666 3.843-.829 6.13-.216s4.098 1.846 5.202 3.252 1.433 2.87 1.097 4.124"
    clip-rule="evenodd"
  />
  <path
    fill-rule="evenodd"
    d="M35.835 24.764c2.395.642 4.727-.294 5.208-2.09.482-1.796-1.07-3.773-3.465-4.414-2.395-.642-4.726.294-5.208 2.09-.48 1.796 1.07 3.773 3.465 4.414m2.577-1.987c.503-.202.658-.467.7-.62.04-.154.039-.462-.296-.888-.335-.427-.935-.858-1.755-1.077-.82-.22-1.556-.148-2.06.055-.502.201-.658.467-.699.62-.041.154-.04.462.295.888.336.427.936.858 1.756 1.078s1.555.147 2.059-.056"
    clip-rule="evenodd"
  />
</svg>
